; generated by PrusaSlicer 2.8.1+win64 on 2024-12-16 at 16:39:03 UTC


;
;
; 

; external perimeters extrusion width = 0.45mm
; perimeters extrusion width = 0.45mm
; infill extrusion width = 0.45mm
; solid infill extrusion width = 0.45mm
; top infill extrusion width = 0.40mm
; support material extrusion width = 0.35mm
; first layer extrusion width = 0.42mm

M73 P0 R182
M73 Q0 S184
M201 X1000 Y1000 Z200 E5000 ; sets maximum accelerations, mm/sec^2
M203 X200 Y200 Z12 E120 ; sets maximum feedrates, mm / sec
M204 S1250 T1250 ; sets acceleration (S) and retract acceleration (R), mm/sec^2
M205 X8.00 Y8.00 Z0.40 E4.50 ; sets the jerk limits, mm/sec
M205 S0 T0 ; sets the minimum extruding and travel feed rate, mm/sec

; printing object v1.0.4 - Case+Lid.stl id:0 copy 0
; stop printing object v1.0.4 - Case+Lid.stl id:0 copy 0

;TYPE:Custom
M862.3 P "MK3S" ; printer model check
M862.1 P0.4 ; nozzle diameter check
M115 U3.14.0 ; tell printer latest fw version
G90 ; use absolute coordinates
M83 ; extruder relative mode
M104 S210 ; set extruder temp
M140 S60 ; set bed temp
M190 S60 ; wait for bed temp
M109 S210 ; wait for extruder temp
G28 W ; home all without mesh bed level
G80 X87.0692 Y50.7694 W78.1902 H108.461 ; mesh bed levelling

G1 Z0.2 F720
G1 Y-3 F1000 ; go outside print area
G92 E0
G1 X60 E9 F1000 ; intro line
G1 X100 E12.5 F1000 ; intro line

G92 E0
M221 S95

; Don't change E values below. Excessive value can damage the printer.
M907 E430 ; set extruder motor current
G21 ; set units to millimeters
G90 ; use absolute coordinates
M83 ; use relative distances for extrusion

M900 K0.05 ; Filament gcode LA 1.5
M900 K30 ; Filament gcode LA 1.0




M107
;LAYER_CHANGE
;Z:0.2
;HEIGHT:0.2
G1 E-.8 F2100
G1 Z.6 F720
G1 X90.033 Y51.821 F10800
G1 Z.2 F720
G1 E.8 F2100
M204 S800
;TYPE:Skirt/Brim
;WIDTH:0.42
G1 F1200
G1 X91.1 Y51.065 E.041
G1 X91.775 Y50.958 E.02143
G1 X151.24 Y50.958 E1.86448
G1 X152.861 Y51.677 E.0556
G1 X157.622 Y56.93 E.22229
G1 X158.178 Y58.191 E.04321
M73 P0 R181
G1 X165.061 Y129.779 E2.25494
G1 X165.071 Y147.539 E.55685
M73 Q0 S183
G1 X164.84 Y148.518 E.03154
G1 X162.511 Y153.175 E.16326
G1 X161.029 Y154.333 E.05897
G1 X140.072 Y158.99 E.67312
G1 X139.597 Y159.042 E.01498
G1 X110.403 Y159.042 E.91536
G1 X109.928 Y158.99 E.01498
G1 X88.972 Y154.333 E.67309
G1 X87.838 Y153.681 E.04101
G1 X87.258 Y152.196 E.04999
G1 X87.258 Y106.703 E1.4264
G1 X89.588 Y53.051 E1.68381
G1 X90.013 Y51.878 E.03912
M204 S1000
;WIPE_START
G1 F8640
G1 X90.033 Y51.821 E-.01395
G1 X91.1 Y51.065 E-.30195
G1 X91.775 Y50.958 E-.15781
G1 X93.188 Y50.958 E-.32629
;WIPE_END
G1 Z.6 F720
; printing object v1.0.4 - Case+Lid.stl id:0 copy 0
G1 X139.597 Y106.703 F10800
G1 Z.2 F720
G1 E.8 F2100
M204 S800
;TYPE:Support material
G1 F1200
G1 X160.554 Y106.703 E.65709
G1 X160.554 Y129.988 E.73008
G1 X162.882 Y129.988 E.07299
G1 X162.882 Y147.539 E.5503
G1 X160.554 Y147.539 E.07299
G1 X160.554 Y152.196 E.14602
G1 X139.597 Y152.196 E.65709
G1 X139.597 Y156.854 E.14605
G1 X110.403 Y156.854 E.91536
G1 X110.403 Y152.196 E.14605
G1 X89.446 Y152.196 E.65709
G1 X89.446 Y106.703 E1.4264
G1 X110.403 Y106.703 E.65709
G1 X110.403 Y102.046 E.14602
G1 X139.597 Y102.046 E.91536
G1 X139.597 Y106.646 E.14423
M204 S1000
G1 X139.597 Y106.646 F10800
G1 X93.992 Y110.897
M204 S800
G1 F1200
G1 X156.008 Y110.897 E1.94447
G1 X156.569 Y111.054 E.01827
G1 X156.932 Y111.409 E.01592
G1 X157.104 Y111.992 E.01906
G1 X157.104 Y146.008 E1.06655
G1 X156.932 Y146.591 E.01906
G1 X156.569 Y146.946 E.01592
G1 X156.008 Y147.103 E.01827
G1 X93.992 Y147.103 E1.94447
G1 X93.409 Y146.932 E.01905
G1 X93.054 Y146.569 E.01592
G1 X92.897 Y146.008 E.01827
G1 X92.896 Y111.992 E1.06655
G1 X92.986 Y111.563 E.01374
G1 X93.193 Y111.248 E.01182
G1 X93.533 Y111 E.0132
G1 X93.936 Y110.9 E.01302
M204 S1000
;WIPE_START
G1 F8640
G1 X93.533 Y111 E-.09588
G1 X93.193 Y111.248 E-.09717
G1 X92.986 Y111.563 E-.08703
G1 X92.896 Y111.992 E-.10121
G1 X92.896 Y113.805 E-.41871
;WIPE_END
G1 Z.6 F720
G1 X162.289 Y147.37 F10800
G1 Z.2 F720
G1 E.8 F2100
M204 S800
G1 F1200
G1 X162.289 Y130.328 E.53434
G1 X161.87 Y130.328 E.01314
G1 X161.87 Y147.2 E.52901
G1 X161.451 Y147.2 E.01314
G1 X161.451 Y130.328 E.52901
G1 X161.032 Y130.328 E.01314
G1 X161.032 Y147.2 E.52901
G1 X160.613 Y147.2 E.01314
G1 X160.613 Y130.328 E.52901
G1 X160.214 Y130.328 E.01251
G1 X160.194 Y107.042 E.73012
G1 X160.194 Y151.857 E1.40514
G1 X159.775 Y151.857 E.01314
G1 X159.775 Y107.042 E1.40514
G1 X159.356 Y107.042 E.01314
G1 X159.356 Y151.857 E1.40514
G1 X158.937 Y151.857 E.01314
G1 X158.937 Y107.042 E1.40514
G1 X158.518 Y107.042 E.01314
G1 X158.518 Y151.857 E1.40514
G1 X158.099 Y151.857 E.01314
G1 X158.099 Y107.042 E1.40514
G1 X157.68 Y107.042 E.01314
G1 X157.68 Y151.857 E1.40514
G1 X157.261 Y151.857 E.01314
M73 P0 R180
G1 X157.261 Y146.697 E.16179
G1 X156.842 Y147.171 E.01984
G1 X156.842 Y151.857 E.14693
G1 X156.423 Y151.857 E.01314
G1 X156.423 Y147.38 E.14037
G1 X156.004 Y147.443 E.01329
G1 X156.004 Y151.857 E.1384
G1 X155.585 Y151.857 E.01314
G1 X155.585 Y147.443 E.1384
G1 X155.166 Y147.443 E.01314
G1 X155.166 Y151.857 E.1384
G1 X154.747 Y151.857 E.01314
G1 X154.747 Y147.443 E.1384
G1 X154.328 Y147.443 E.01314
M73 Q0 S182
G1 X154.328 Y151.857 E.1384
G1 X153.909 Y151.857 E.01314
G1 X153.909 Y147.443 E.1384
G1 X153.49 Y147.443 E.01314
G1 X153.49 Y151.857 E.1384
G1 X153.071 Y151.857 E.01314
G1 X153.071 Y147.443 E.1384
G1 X152.652 Y147.443 E.01314
G1 X152.652 Y151.857 E.1384
G1 X152.234 Y151.857 E.01311
G1 X152.234 Y147.443 E.1384
G1 X151.815 Y147.443 E.01314
G1 X151.815 Y151.857 E.1384
G1 X151.396 Y151.857 E.01314
G1 X151.396 Y147.443 E.1384
G1 X150.977 Y147.443 E.01314
G1 X150.977 Y151.857 E.1384
G1 X150.558 Y151.857 E.01314
G1 X150.558 Y147.443 E.1384
G1 X150.139 Y147.443 E.01314
G1 X150.139 Y151.857 E.1384
G1 X149.72 Y151.857 E.01314
G1 X149.72 Y147.443 E.1384
G1 X149.301 Y147.443 E.01314
G1 X149.301 Y151.857 E.1384
G1 X148.882 Y151.857 E.01314
G1 X148.882 Y147.443 E.1384
G1 X148.463 Y147.443 E.01314
G1 X148.463 Y151.857 E.1384
G1 X148.044 Y151.857 E.01314
G1 X148.044 Y147.443 E.1384
G1 X147.625 Y147.443 E.01314
G1 X147.625 Y151.857 E.1384
G1 X147.206 Y151.857 E.01314
G1 X147.206 Y147.443 E.1384
G1 X146.787 Y147.443 E.01314
G1 X146.787 Y151.857 E.1384
G1 X146.368 Y151.857 E.01314
G1 X146.368 Y147.443 E.1384
G1 X145.949 Y147.443 E.01314
G1 X145.949 Y151.857 E.1384
G1 X145.53 Y151.857 E.01314
G1 X145.53 Y147.443 E.1384
G1 X145.111 Y147.443 E.01314
G1 X145.111 Y151.857 E.1384
G1 X144.692 Y151.857 E.01314
G1 X144.692 Y147.443 E.1384
G1 X144.273 Y147.443 E.01314
G1 X144.273 Y151.857 E.1384
G1 X143.854 Y151.857 E.01314
G1 X143.854 Y147.443 E.1384
G1 X143.435 Y147.443 E.01314
G1 X143.435 Y151.857 E.1384
G1 X143.016 Y151.857 E.01314
G1 X143.016 Y147.443 E.1384
G1 X142.597 Y147.443 E.01314
G1 X142.597 Y151.857 E.1384
G1 X142.178 Y151.857 E.01314
G1 X142.178 Y147.443 E.1384
G1 X141.759 Y147.443 E.01314
G1 X141.759 Y151.857 E.1384
G1 X141.34 Y151.857 E.01314
G1 X141.34 Y147.443 E.1384
G1 X140.921 Y147.443 E.01314
G1 X140.921 Y151.857 E.1384
G1 X140.502 Y151.857 E.01314
G1 X140.502 Y147.443 E.1384
G1 X140.083 Y147.443 E.01314
G1 X140.083 Y151.857 E.1384
G1 X139.664 Y151.857 E.01314
G1 X139.664 Y147.443 E.1384
G1 X139.245 Y147.443 E.01314
G1 X139.245 Y156.514 E.28441
G1 X138.826 Y156.514 E.01314
G1 X138.826 Y147.443 E.28441
G1 X138.407 Y147.443 E.01314
G1 X138.407 Y156.514 E.28441
G1 X137.988 Y156.514 E.01314
G1 X137.988 Y147.443 E.28441
G1 X137.569 Y147.443 E.01314
G1 X137.569 Y156.514 E.28441
G1 X137.15 Y156.514 E.01314
G1 X137.15 Y147.443 E.28441
G1 X136.731 Y147.443 E.01314
G1 X136.731 Y156.514 E.28441
G1 X136.312 Y156.514 E.01314
G1 X136.312 Y147.443 E.28441
G1 X135.893 Y147.443 E.01314
G1 X135.893 Y156.514 E.28441
G1 X135.474 Y156.514 E.01314
G1 X135.474 Y147.443 E.28441
G1 X135.055 Y147.443 E.01314
G1 X135.055 Y156.514 E.28441
G1 X134.636 Y156.514 E.01314
G1 X134.636 Y147.443 E.28441
G1 X134.217 Y147.443 E.01314
G1 X134.217 Y156.514 E.28441
G1 X133.799 Y156.514 E.01311
G1 X133.799 Y147.443 E.28441
G1 X133.38 Y147.443 E.01314
G1 X133.38 Y156.514 E.28441
G1 X132.961 Y156.514 E.01314
G1 X132.961 Y147.443 E.28441
G1 X132.542 Y147.443 E.01314
G1 X132.542 Y156.514 E.28441
G1 X132.123 Y156.514 E.01314
G1 X132.123 Y147.443 E.28441
G1 X131.704 Y147.443 E.01314
G1 X131.704 Y156.514 E.28441
G1 X131.285 Y156.514 E.01314
G1 X131.285 Y147.443 E.28441
G1 X130.866 Y147.443 E.01314
G1 X130.866 Y156.514 E.28441
G1 X130.447 Y156.514 E.01314
G1 X130.447 Y147.443 E.28441
G1 X130.028 Y147.443 E.01314
G1 X130.028 Y156.514 E.28441
G1 X129.609 Y156.514 E.01314
G1 X129.609 Y147.443 E.28441
G1 X129.19 Y147.443 E.01314
G1 X129.19 Y156.514 E.28441
G1 X128.771 Y156.514 E.01314
G1 X128.771 Y147.443 E.28441
G1 X128.352 Y147.443 E.01314
G1 X128.352 Y156.514 E.28441
G1 X127.933 Y156.514 E.01314
G1 X127.933 Y147.443 E.28441
G1 X127.514 Y147.443 E.01314
G1 X127.514 Y156.514 E.28441
G1 X127.095 Y156.514 E.01314
G1 X127.095 Y147.443 E.28441
G1 X126.676 Y147.443 E.01314
G1 X126.676 Y156.514 E.28441
G1 X126.257 Y156.514 E.01314
G1 X126.257 Y147.443 E.28441
G1 X125.838 Y147.443 E.01314
G1 X125.838 Y156.514 E.28441
G1 X125.419 Y156.514 E.01314
G1 X125.419 Y147.443 E.28441
G1 X125 Y147.443 E.01314
G1 X125 Y156.514 E.28441
G1 X124.581 Y156.514 E.01314
G1 X124.581 Y147.443 E.28441
G1 X124.162 Y147.443 E.01314
G1 X124.162 Y156.514 E.28441
G1 X123.743 Y156.514 E.01314
G1 X123.743 Y147.443 E.28441
G1 X123.324 Y147.443 E.01314
G1 X123.324 Y156.514 E.28441
G1 X122.905 Y156.514 E.01314
G1 X122.905 Y147.443 E.28441
G1 X122.486 Y147.443 E.01314
G1 X122.486 Y156.514 E.28441
G1 X122.067 Y156.514 E.01314
G1 X122.067 Y147.443 E.28441
G1 X121.648 Y147.443 E.01314
G1 X121.648 Y156.514 E.28441
G1 X121.229 Y156.514 E.01314
G1 X121.229 Y147.443 E.28441
G1 X120.81 Y147.443 E.01314
G1 X120.81 Y156.514 E.28441
G1 X120.391 Y156.514 E.01314
G1 X120.391 Y147.443 E.28441
G1 X119.972 Y147.443 E.01314
G1 X119.972 Y156.514 E.28441
G1 X119.553 Y156.514 E.01314
G1 X119.553 Y147.443 E.28441
G1 X119.134 Y147.443 E.01314
G1 X119.134 Y156.514 E.28441
G1 X118.715 Y156.514 E.01314
G1 X118.715 Y147.443 E.28441
G1 X118.296 Y147.443 E.01314
G1 X118.296 Y156.514 E.28441
G1 X117.877 Y156.514 E.01314
G1 X117.877 Y147.443 E.28441
G1 X117.458 Y147.443 E.01314
G1 X117.458 Y156.514 E.28441
G1 X117.039 Y156.514 E.01314
G1 X117.039 Y147.443 E.28441
G1 X116.62 Y147.443 E.01314
G1 X116.62 Y156.514 E.28441
G1 X116.201 Y156.514 E.01314
G1 X116.201 Y147.443 E.28441
G1 X115.783 Y147.443 E.01311
M73 P1 R180
G1 X115.783 Y156.514 E.28441
G1 X115.364 Y156.514 E.01314
M73 Q1 S182
G1 X115.364 Y147.443 E.28441
G1 X114.945 Y147.443 E.01314
G1 X114.945 Y156.514 E.28441
G1 X114.526 Y156.514 E.01314
G1 X114.526 Y147.443 E.28441
G1 X114.107 Y147.443 E.01314
G1 X114.107 Y156.514 E.28441
G1 X113.688 Y156.514 E.01314
G1 X113.688 Y147.443 E.28441
G1 X113.269 Y147.443 E.01314
G1 X113.269 Y156.514 E.28441
G1 X112.85 Y156.514 E.01314
G1 X112.85 Y147.443 E.28441
G1 X112.431 Y147.443 E.01314
G1 X112.431 Y156.514 E.28441
G1 X112.012 Y156.514 E.01314
G1 X112.012 Y147.443 E.28441
G1 X111.593 Y147.443 E.01314
G1 X111.593 Y156.514 E.28441
G1 X111.174 Y156.514 E.01314
G1 X111.174 Y147.443 E.28441
G1 X110.755 Y147.443 E.01314
G1 X110.755 Y156.514 E.28441
G1 X110.743 Y151.857 E.14602
G1 X110.336 Y151.857 E.01276
G1 X110.336 Y147.443 E.1384
G1 X109.917 Y147.443 E.01314
G1 X109.917 Y151.857 E.1384
G1 X109.498 Y151.857 E.01314
G1 X109.498 Y147.443 E.1384
G1 X109.079 Y147.443 E.01314
G1 X109.079 Y151.857 E.1384
G1 X108.66 Y151.857 E.01314
G1 X108.66 Y147.443 E.1384
G1 X108.241 Y147.443 E.01314
G1 X108.241 Y151.857 E.1384
G1 X107.822 Y151.857 E.01314
G1 X107.822 Y147.443 E.1384
G1 X107.403 Y147.443 E.01314
G1 X107.403 Y151.857 E.1384
G1 X106.984 Y151.857 E.01314
G1 X106.984 Y147.443 E.1384
G1 X106.565 Y147.443 E.01314
G1 X106.565 Y151.857 E.1384
G1 X106.146 Y151.857 E.01314
G1 X106.146 Y147.443 E.1384
G1 X105.727 Y147.443 E.01314
G1 X105.727 Y151.857 E.1384
G1 X105.308 Y151.857 E.01314
G1 X105.308 Y147.443 E.1384
G1 X104.889 Y147.443 E.01314
G1 X104.889 Y151.857 E.1384
G1 X104.47 Y151.857 E.01314
G1 X104.47 Y147.443 E.1384
G1 X104.051 Y147.443 E.01314
G1 X104.051 Y151.857 E.1384
G1 X103.632 Y151.857 E.01314
G1 X103.632 Y147.443 E.1384
G1 X103.213 Y147.443 E.01314
G1 X103.213 Y151.857 E.1384
G1 X102.794 Y151.857 E.01314
G1 X102.794 Y147.443 E.1384
G1 X102.375 Y147.443 E.01314
G1 X102.375 Y151.857 E.1384
G1 X101.956 Y151.857 E.01314
G1 X101.956 Y147.443 E.1384
G1 X101.537 Y147.443 E.01314
G1 X101.537 Y151.857 E.1384
G1 X101.118 Y151.857 E.01314
G1 X101.118 Y147.443 E.1384
G1 X100.699 Y147.443 E.01314
G1 X100.699 Y151.857 E.1384
G1 X100.28 Y151.857 E.01314
G1 X100.28 Y147.443 E.1384
G1 X99.861 Y147.443 E.01314
G1 X99.861 Y151.857 E.1384
G1 X99.442 Y151.857 E.01314
G1 X99.442 Y147.443 E.1384
G1 X99.023 Y147.443 E.01314
G1 X99.023 Y151.857 E.1384
G1 X98.604 Y151.857 E.01314
G1 X98.604 Y147.443 E.1384
G1 X98.185 Y147.443 E.01314
G1 X98.185 Y151.857 E.1384
G1 X97.766 Y151.857 E.01314
G1 X97.766 Y147.443 E.1384
G1 X97.348 Y147.443 E.01311
G1 X97.348 Y151.857 E.1384
G1 X96.929 Y151.857 E.01314
G1 X96.929 Y147.443 E.1384
G1 X96.51 Y147.443 E.01314
G1 X96.51 Y151.857 E.1384
G1 X96.091 Y151.857 E.01314
G1 X96.091 Y147.443 E.1384
G1 X95.672 Y147.443 E.01314
G1 X95.672 Y151.857 E.1384
G1 X95.253 Y151.857 E.01314
G1 X95.253 Y147.443 E.1384
G1 X94.834 Y147.443 E.01314
G1 X94.834 Y151.857 E.1384
G1 X94.415 Y151.857 E.01314
G1 X94.415 Y147.443 E.1384
G1 X93.996 Y147.443 E.01314
G1 X93.996 Y151.857 E.1384
G1 X93.577 Y151.857 E.01314
G1 X93.577 Y147.38 E.14037
G1 X93.158 Y147.172 E.01467
G1 X93.158 Y151.857 E.14689
G1 X92.739 Y151.857 E.01314
G1 X92.739 Y146.698 E.16176
G1 X92.557 Y146.013 E.02222
G1 X92.557 Y111.987 E1.06686
G1 X92.739 Y111.303 E.02219
G1 X92.739 Y107.042 E.1336
G1 X93.158 Y107.042 E.01314
G1 X93.158 Y110.829 E.11874
G1 X93.577 Y110.62 E.01468
G1 X93.577 Y107.042 E.11219
G1 X93.996 Y107.042 E.01314
G1 X93.996 Y110.557 E.11021
G1 X94.415 Y110.557 E.01314
M73 P1 R179
G1 X94.415 Y107.042 E.11021
G1 X94.834 Y107.042 E.01314
G1 X94.834 Y110.557 E.11021
G1 X95.253 Y110.557 E.01314
G1 X95.253 Y107.042 E.11021
G1 X95.672 Y107.042 E.01314
G1 X95.672 Y110.557 E.11021
G1 X96.091 Y110.557 E.01314
G1 X96.091 Y107.042 E.11021
G1 X96.51 Y107.042 E.01314
G1 X96.51 Y110.557 E.11021
G1 X96.929 Y110.557 E.01314
G1 X96.929 Y107.042 E.11021
G1 X97.348 Y107.042 E.01314
G1 X97.348 Y110.557 E.11021
G1 X97.766 Y110.557 E.01311
G1 X97.766 Y107.042 E.11021
G1 X98.185 Y107.042 E.01314
G1 X98.185 Y110.557 E.11021
G1 X98.604 Y110.557 E.01314
G1 X98.604 Y107.042 E.11021
G1 X99.023 Y107.042 E.01314
G1 X99.023 Y110.557 E.11021
M73 Q1 S181
G1 X99.442 Y110.557 E.01314
G1 X99.442 Y107.042 E.11021
G1 X99.861 Y107.042 E.01314
G1 X99.861 Y110.557 E.11021
G1 X100.28 Y110.557 E.01314
G1 X100.28 Y107.042 E.11021
G1 X100.699 Y107.042 E.01314
G1 X100.699 Y110.557 E.11021
G1 X101.118 Y110.557 E.01314
G1 X101.118 Y107.042 E.11021
G1 X101.537 Y107.042 E.01314
G1 X101.537 Y110.557 E.11021
G1 X101.956 Y110.557 E.01314
G1 X101.956 Y107.042 E.11021
G1 X102.375 Y107.042 E.01314
G1 X102.375 Y110.557 E.11021
G1 X102.794 Y110.557 E.01314
G1 X102.794 Y107.042 E.11021
G1 X103.213 Y107.042 E.01314
G1 X103.213 Y110.557 E.11021
G1 X103.632 Y110.557 E.01314
G1 X103.632 Y107.042 E.11021
G1 X104.051 Y107.042 E.01314
G1 X104.051 Y110.557 E.11021
G1 X104.47 Y110.557 E.01314
G1 X104.47 Y107.042 E.11021
G1 X104.889 Y107.042 E.01314
G1 X104.889 Y110.557 E.11021
G1 X105.308 Y110.557 E.01314
G1 X105.308 Y107.042 E.11021
G1 X105.727 Y107.042 E.01314
G1 X105.727 Y110.557 E.11021
G1 X106.146 Y110.557 E.01314
G1 X106.146 Y107.042 E.11021
G1 X106.565 Y107.042 E.01314
G1 X106.565 Y110.557 E.11021
G1 X106.984 Y110.557 E.01314
G1 X106.984 Y107.042 E.11021
G1 X107.403 Y107.042 E.01314
G1 X107.403 Y110.557 E.11021
G1 X107.822 Y110.557 E.01314
G1 X107.822 Y107.042 E.11021
G1 X108.241 Y107.042 E.01314
G1 X108.241 Y110.557 E.11021
G1 X108.66 Y110.557 E.01314
G1 X108.66 Y107.042 E.11021
G1 X109.079 Y107.042 E.01314
G1 X109.079 Y110.557 E.11021
